packages/gestalt-icons-android/vr-theme/ic_vr_view-type-default_gestalt.svg

<svg width="24" height="24" viewBox="0 0 24 24" fill="none" xmlns="http://www.w3.org/2000/svg">
<path fill-rule="evenodd" clip-rule="evenodd" d="M1 3C1 1.89543 1.89543 1 3 1H9C10.1046 1 11 1.89543 11 3V9C11 10.1046 10.1046 11 9 11H3C1.89543 11 1 10.1046 1 9V3ZM3 3H9V9H3L3 3Z" fill="black"/>
<path fill-rule="evenodd" clip-rule="evenodd" d="M1 15C1 13.8954 1.89543 13 3 13H9C10.1046 13 11 13.8954 11 15V21C11 22.1046 10.1046 23 9 23H3C1.89543 23 1 22.1046 1 21V15ZM3 15H9V21H3L3 15Z" fill="black"/>
<path fill-rule="evenodd" clip-rule="evenodd" d="M15 1C13.8954 1 13 1.89543 13 3V9C13 10.1046 13.8954 11 15 11H21C22.1046 11 23 10.1046 23 9V3C23 1.89543 22.1046 1 21 1H15ZM21 3H15V9H21V3Z" fill="black"/>
<path fill-rule="evenodd" clip-rule="evenodd" d="M13 15C13 13.8954 13.8954 13 15 13H21C22.1046 13 23 13.8954 23 15V21C23 22.1046 22.1046 23 21 23H15C13.8954 23 13 22.1046 13 21V15ZM15 15H21V21H15V15Z" fill="black"/>
</svg>

<svg xmlns="http://www.w3.org/2000/svg" width="24" height="24"><path d="M1 3c0-1.1.9-2 2-2h6a2 2 0 0 1 2 2v6a2 2 0 0 1-2 2H3a2 2 0 0 1-2-2zm2 6h6V3H3zm-2 6c0-1.1.9-2 2-2h6a2 2 0 0 1 2 2v6a2 2 0 0 1-2 2H3a2 2 0 0 1-2-2zm2 6h6v-6H3zM21 1a2 2 0 0 1 2 2v6a2 2 0 0 1-2 2h-6a2 2 0 0 1-2-2V3c0-1.1.9-2 2-2zm0 2h-6v6h6zm-8 12c0-1.1.9-2 2-2h6a2 2 0 0 1 2 2v6a2 2 0 0 1-2 2h-6a2 2 0 0 1-2-2zm2 6h6v-6h-6z"/></svg>
